<?xml version="1.0" encoding="UTF-8"?>
<map version="1.10" tiledversion="1.12.2" orientation="orthogonal" renderorder="right-down" width="20" height="15" tilewidth="32" tileheight="32" infinite="0" nextlayerid="2" nextobjectid="1">
 <tileset firstgid="1" name="normalBlock" tilewidth="32" tileheight="32" tilecount="4" columns="2">
  <image source="../models/normalBlock/normalBlock.png" width="64" height="64"/>
 </tileset>
 <layer id="1" name="タイルレイヤー1" width="20" height="15">
  <data encoding="csv">
1,1,1,1,1,1,1,1,1,1,1,1,1,1,1,1,1,1,1,1,
1,0,0,0,0,0,0,0,0,0,0,0,0,0,0,0,0,0,0,1,
1,0,1,0,1,1,0,0,1,1,1,0,0,1,0,0,0,0,0,1,
1,0,1,0,0,1,0,0,0,0,0,0,0,1,0,1,1,1,0,1,
1,0,1,0,1,1,0,0,1,1,1,0,0,1,0,0,0,0,0,1,
1,0,0,0,0,0,0,0,0,0,0,0,0,0,0,0,0,0,0,1,
1,0,0,0,0,0,0,0,0,0,0,0,0,0,0,0,0,0,0,1,
1,0,0,0,0,0,0,0,0,0,0,0,0,0,0,0,0,0,0,1,
1,0,0,0,0,0,0,0,0,0,0,0,0,0,0,0,0,0,0,1,
1,0,0,0,0,0,0,0,0,0,0,0,0,0,1,0,0,1,1,1,
1,0,0,0,1,1,0,0,0,0,0,0,0,1,0,0,0,0,0,1,
1,0,0,0,0,0,0,0,0,0,0,0,1,0,0,0,0,0,0,1,
1,0,1,1,0,0,1,1,0,0,0,1,0,0,0,0,0,1,1,1,
1,0,0,0,0,0,0,0,0,0,0,0,0,0,0,0,0,0,0,1,
1,1,1,1,1,1,1,1,1,1,1,1,1,1,1,1,1,1,1,1
</data>
 </layer>
</map>
